src/icon/banking/convert/icon_convert_xxl_white.svg

<svg width="48px" height="48px" viewBox="0 0 48 48" version="1.1" xmlns="http://www.w3.org/2000/svg"><g stroke="none" stroke-width="1" fill="none" fill-rule="evenodd"><rect x="0" y="0" width="48" height="48"/><polygon fill="#FFFFFF" fill-rule="nonzero" opacity="0.300000012" points="36 46.218975 45.9359816 34.2957972 46.7042028 34.9359816 36 47.781025 25.2957972 34.9359816 26.0640184 34.2957972"/><path d="M19.9631594,20.5104984 L20.4615338,20.5507842 L20.3809622,21.547533 L19.8825878,21.5072473 C10.0206288,20.7100621 5.20601953,24.8204519 5.20601953,34 C5.20601953,43.1747627 10.0132118,47.1756448 19.8719679,46.1671093 L20.369372,46.1162256 L20.4711393,47.1110338 L19.9737352,47.1619175 C9.54338195,48.2289265 4.20601953,43.7867997 4.20601953,34 C4.20601953,24.2179857 9.53597965,19.667624 19.9631594,20.5104984 Z" fill="#FFFFFF" fill-rule="nonzero"/><polygon fill="#FFFFFF" fill-rule="nonzero" points="0.5 31.5 0.5 30.5 17.5 30.5 17.5 31.5"/><polygon fill="#FFFFFF" fill-rule="nonzero" points="0.5 37.5 0.5 36.5 17.5 36.5 17.5 37.5"/><polygon fill="#FFFFFF" fill-rule="nonzero" points="35.5 0.5 36.5 0.5 36.5 29.5 35.5 29.5"/><path d="M44.0224338,8.55257999 L43.0246975,8.61982709 C42.7923448,5.1724414 40.4998832,3.47890449 35.9332274,3.47890449 C31.5430413,3.47890449 29.5229308,5.14503656 29.5229308,8.58620354 C29.5229308,11.512116 31.4678383,13.0232414 36.4539901,14.9563759 C36.6916529,15.048518 37.498416,15.3585234 37.5827183,15.3910567 C42.2691207,17.1995957 44.0235657,18.4416963 44.0235657,21.0107556 C44.0235657,25.8806595 40.7560934,27.8632506 35.265932,27.5742085 C30.6129804,27.3292432 27.9680086,25.1347914 27.4865784,21.0695578 L28.4796389,20.9519534 C28.9006119,24.5066816 31.1283805,26.3549927 35.3185065,26.5755915 C40.3072867,26.8382372 43.0235657,25.1900915 43.0235657,21.0107556 C43.0235657,19.0514156 41.5058745,17.9769304 37.2226856,16.3239964 C37.1396516,16.2919526 36.3318524,15.981549 36.0925064,15.8887543 C30.7375963,13.812652 28.5229308,12.0919339 28.5229308,8.58620354 C28.5229308,4.54561196 31.028721,2.47890449 35.9332274,2.47890449 C40.9831158,2.47890449 43.7508797,4.52356695 44.0224338,8.55257999 Z" fill="#FFFFFF" fill-rule="nonzero"/><polygon fill="#FFFFFF" fill-rule="nonzero" opacity="0.300000012" points="12 1.77783401 2.06401844 13.7010119 1.29579716 13.0608275 12 0.215784073 22.7042028 13.0608275 21.9359816 13.7010119"/></g></svg>

<svg width="48" height="48" viewBox="0 0 48 48" xmlns="http://www.w3.org/2000/svg"><g fill="none" fill-rule="evenodd"><path d="M0 0h48v48H0z"/><path fill="#FFF" fill-rule="nonzero" opacity=".3" d="M36 46.219l9.936-11.923.768.64L36 47.781 25.296 34.936l.768-.64z"/><path d="M19.963 20.51l.499.04-.081.998-.498-.04C10.02 20.71 5.206 24.82 5.206 34c0 9.175 4.807 13.176 14.666 12.167l.497-.05.102.994-.497.05C9.544 48.23 4.206 43.788 4.206 34c0-9.782 5.33-14.332 15.757-13.49z" fill="#FFF" fill-rule="nonzero"/><path fill="#FFF" fill-rule="nonzero" d="M.5 31.5v-1h17v1zM.5 37.5v-1h17v1zM35.5.5h1v29h-1z"/><path d="M44.022 8.553l-.997.067c-.233-3.448-2.525-5.141-7.092-5.141-4.39 0-6.41 1.666-6.41 5.107 0 2.926 1.945 4.437 6.931 6.37.238.093 1.044.403 1.129.435 4.686 1.809 6.44 3.05 6.44 5.62 0 4.87-3.267 6.852-8.757 6.563-4.653-.245-7.298-2.44-7.78-6.504l.994-.118c.42 3.555 2.648 5.403 6.839 5.624 4.988.262 7.705-1.386 7.705-5.565 0-1.96-1.518-3.034-5.801-4.687l-1.13-.435c-5.355-2.076-7.57-3.797-7.57-7.303 0-4.04 2.506-6.107 7.41-6.107 5.05 0 7.818 2.045 8.09 6.074z" fill="#FFF" fill-rule="nonzero"/><path fill="#FFF" fill-rule="nonzero" opacity=".3" d="M12 1.778L2.064 13.7l-.768-.64L12 .216 22.704 13.06l-.768.64z"/></g></svg>
